flaticon/arrows/transfer-6.svg

<svg xmlns="http://www.w3.org/2000/svg" width="32" height="32" viewBox="0 0 24 24">
    <path d="M18.828125 5.792969C20.425781 5.792969 21.722656 4.492188 21.722656 2.898438 21.722656 1.300781 20.425781 0 18.828125 0 17.230469 0 15.929688 1.300781 15.929688 2.898438 15.929688 4.492188 17.230469 5.792969 18.828125 5.792969zM18.828125.828125C19.96875.828125 20.898438 1.753906 20.898438 2.898438 20.898438 4.039062 19.96875 4.964844 18.828125 4.964844 17.6875 4.964844 16.757812 4.039062 16.757812 2.898438 16.757812 1.753906 17.6875.828125 18.828125.828125zM21.019531 11.464844C21.097656 11.546875 21.203125 11.585938 21.308594 11.585938 21.417969 11.585938 21.523438 11.546875 21.601562 11.464844 21.765625 11.304688 21.765625 11.042969 21.601562 10.878906L19.121094 8.398438C18.957031 8.234375 18.695312 8.234375 18.535156 8.398438L16.050781 10.878906C15.890625 11.042969 15.890625 11.304688 16.050781 11.464844 16.132812 11.546875 16.238281 11.585938 16.34375 11.585938 16.449219 11.585938 16.558594 11.546875 16.636719 11.464844L18.414062 9.6875 18.414062 18.238281C17.011719 18.441406 15.929688 19.648438 15.929688 21.101562 15.929688 22.699219 17.230469 24 18.828125 24 20.425781 24 21.722656 22.699219 21.722656 21.101562 21.722656 19.648438 20.640625 18.441406 19.242188 18.238281L19.242188 9.6875zM20.898438 21.101562C20.898438 22.246094 19.96875 23.171875 18.828125 23.171875 17.6875 23.171875 16.757812 22.246094 16.757812 21.101562 16.757812 19.960938 17.6875 19.035156 18.828125 19.035156 19.96875 19.035156 20.898438 19.960938 20.898438 21.101562zM11.257812 18.328125C11.097656 18.167969 10.835938 18.167969 10.671875 18.328125 10.511719 18.488281 10.511719 18.75 10.671875 18.914062L12.449219 20.691406 12.285156 20.691406C12.058594 20.691406 11.871094 20.875 11.871094 21.101562 11.871094 21.332031 12.058594 21.515625 12.285156 21.515625L12.449219 21.515625 10.671875 23.292969C10.511719 23.457031 10.511719 23.71875 10.671875 23.878906 10.753906 23.960938 10.859375 24 10.964844 24 11.070312 24 11.175781 23.960938 11.257812 23.878906L13.742188 21.394531C13.902344 21.234375 13.902344 20.972656 13.742188 20.8125zM4.757812 6.621094C4.757812 6.847656 4.945312 7.035156 5.171875 7.035156 5.402344 7.035156 5.585938 6.847656 5.585938 6.621094L5.585938 5.761719C6.988281 5.558594 8.070312 4.351562 8.070312 2.898438 8.070312 1.300781 6.769531 0 5.171875 0 3.574219 0 2.277344 1.300781 2.277344 2.898438 2.277344 4.351562 3.355469 5.558594 4.757812 5.761719zM3.101562 2.898438C3.101562 1.753906 4.03125.828125 5.171875.828125 6.3125.828125 7.242188 1.753906 7.242188 2.898438 7.242188 4.039062 6.3125 4.964844 5.171875 4.964844 4.03125 4.964844 3.101562 4.039062 3.101562 2.898438zM5.585938 10.757812C5.585938 10.53125 5.402344 10.34375 5.171875 10.34375 4.945312 10.34375 4.757812 10.53125 4.757812 10.757812L4.757812 11.585938C4.757812 11.816406 4.945312 12 5.171875 12 5.402344 12 5.585938 11.816406 5.585938 11.585938zM5.585938 16.964844L5.585938 16.136719C5.585938 15.910156 5.402344 15.722656 5.171875 15.722656 4.945312 15.722656 4.757812 15.910156 4.757812 16.136719L4.757812 16.964844C4.757812 17.195312 4.945312 17.378906 5.171875 17.378906 5.402344 17.378906 5.585938 17.195312 5.585938 16.964844zM8.269531 20.566406C7.910156 20.46875 7.566406 20.316406 7.253906 20.113281 7.0625 19.992188 6.804688 20.046875 6.683594 20.238281 6.558594 20.429688 6.613281 20.6875 6.804688 20.808594 7.191406 21.058594 7.609375 21.246094 8.050781 21.363281 8.089844 21.375 8.125 21.378906 8.160156 21.378906 8.34375 21.378906 8.507812 21.257812 8.558594 21.074219 8.621094 20.851562 8.488281 20.625 8.269531 20.566406zM8.269531 20.566406"/>
    <path d="M11.042969 21.101562C11.042969 20.875 10.859375 20.691406 10.628906 20.691406L9.800781 20.691406C9.574219 20.691406 9.386719 20.875 9.386719 21.101562 9.386719 21.332031 9.574219 21.515625 9.800781 21.515625L10.628906 21.515625C10.859375 21.515625 11.042969 21.332031 11.042969 21.101562zM5.585938 8.277344C5.585938 8.046875 5.402344 7.863281 5.171875 7.863281 4.945312 7.863281 4.757812 8.046875 4.757812 8.277344L4.757812 9.101562C4.757812 9.332031 4.945312 9.515625 5.171875 9.515625 5.402344 9.515625 5.585938 9.332031 5.585938 9.101562zM5.851562 18.425781C5.765625 18.214844 5.523438 18.113281 5.3125 18.199219 5.101562 18.285156 5 18.527344 5.085938 18.738281 5.199219 19.019531 5.34375 19.289062 5.515625 19.542969 5.59375 19.660156 5.722656 19.722656 5.859375 19.722656 5.9375 19.722656 6.015625 19.703125 6.089844 19.652344 6.277344 19.527344 6.328125 19.269531 6.199219 19.078125 6.0625 18.875 5.945312 18.652344 5.851562 18.425781zM5.171875 12.828125C4.945312 12.828125 4.757812 13.011719 4.757812 13.242188L4.757812 14.484375C4.757812 14.710938 4.945312 14.898438 5.171875 14.898438 5.402344 14.898438 5.585938 14.710938 5.585938 14.484375L5.585938 13.242188C5.585938 13.011719 5.402344 12.828125 5.171875 12.828125zM5.171875 12.828125"/>
</svg>

<svg xmlns="http://www.w3.org/2000/svg" width="32" height="32" viewBox="0 0 24 24">
    <path d="M18.828 5.793c1.598 0 2.895-1.3 2.895-2.895A2.9 2.9 0 0 0 18.828 0a2.902 2.902 0 0 0-2.898 2.898c0 1.594 1.3 2.895 2.898 2.895zm0-4.965c1.14 0 2.07.926 2.07 2.07a2.07 2.07 0 0 1-4.14 0c0-1.144.93-2.07 2.07-2.07zm0 0M21.02 11.465a.396.396 0 0 0 .289.12c.109 0 .214-.038.293-.12a.41.41 0 0 0 0-.586l-2.48-2.48a.41.41 0 0 0-.587 0l-2.484 2.48a.417.417 0 0 0 0 .586.41.41 0 0 0 .293.12c.105 0 .215-.038.293-.12l1.777-1.777v8.55a2.902 2.902 0 0 0-2.484 2.864c0 1.597 1.3 2.898 2.898 2.898a2.9 2.9 0 0 0 2.895-2.898 2.902 2.902 0 0 0-2.48-2.864v-8.55zm-.122 9.637a2.071 2.071 0 0 1-4.14 0 2.07 2.07 0 0 1 4.14 0zm0 0M11.258 18.328a.417.417 0 0 0-.586 0 .417.417 0 0 0 0 .586l1.777 1.777h-.164a.413.413 0 0 0-.414.41c0 .231.188.415.414.415h.164l-1.777 1.777a.417.417 0 0 0 0 .586.41.41 0 0 0 .293.121.41.41 0 0 0 .293-.121l2.484-2.484a.413.413 0 0 0 0-.582zm0 0M4.758 6.621a.414.414 0 0 0 .828 0v-.86A2.902 2.902 0 0 0 8.07 2.899C8.07 1.301 6.77 0 5.172 0a2.9 2.9 0 0 0-2.895 2.898 2.899 2.899 0 0 0 2.48 2.864zM3.102 2.898a2.071 2.071 0 0 1 4.14 0 2.07 2.07 0 0 1-4.14 0zm0 0M5.586 10.758a.414.414 0 0 0-.828 0v.828a.414.414 0 0 0 .828 0zm0 0M5.586 16.965v-.828a.414.414 0 0 0-.828 0v.828a.414.414 0 0 0 .828 0zm0 0M8.27 20.566a3.594 3.594 0 0 1-1.016-.453.415.415 0 0 0-.45.696c.387.25.805.437 1.247.554a.413.413 0 0 0 .508-.29.41.41 0 0 0-.29-.507zm0 0"/>
    <path d="M11.043 21.102a.411.411 0 0 0-.414-.41H9.8a.413.413 0 0 0-.414.41c0 .23.187.414.414.414h.828c.23 0 .414-.184.414-.414zm0 0M5.586 8.277a.414.414 0 0 0-.828 0v.825a.414.414 0 0 0 .828 0zm0 0M5.852 18.426a.414.414 0 0 0-.766.312c.113.282.258.551.43.805.078.117.207.18.343.18a.413.413 0 0 0 .34-.645 3.73 3.73 0 0 1-.347-.652zm0 0M5.172 12.828a.414.414 0 0 0-.414.414v1.242a.414.414 0 0 0 .828 0v-1.242a.412.412 0 0 0-.414-.414zm0 0"/>
</svg>
